images/mSLV.svg

<svg height="250" viewBox="0 0 250 250" width="250" xmlns="http://www.w3.org/2000/svg" xmlns:xlink="http://www.w3.org/1999/xlink"><symbol id="a" overflow="visible"><path d="m44.84375-14.15625c0 4.8125-1.789062 8.496094-5.359375 11.046875-3.5625 2.542969-8.796875 3.8125-15.703125 3.8125-6.304688 0-11.246094-1.113281-14.828125-3.34375-3.574219-2.238281-5.871094-5.625-6.890625-10.15625l9.9375-1.640625c.675781 2.605469 1.988281 4.496094 3.9375 5.671875 1.945312 1.167969 4.65625 1.75 8.125 1.75 7.1875 0 10.78125-2.179687 10.78125-6.546875 0-1.394531-.417969-2.546875-1.25-3.453125-.824219-.90625-1.984375-1.660156-3.484375-2.265625-1.5-.601562-4.375-1.335938-8.625-2.203125-3.679687-.851563-6.242187-1.539063-7.6875-2.0625-1.4375-.53125-2.742187-1.148437-3.90625-1.859375-1.15625-.707031-2.140625-1.5625-2.953125-2.5625s-1.449219-2.171875-1.90625-3.515625c-.449219-1.351563-.671875-2.898437-.671875-4.640625 0-4.445312 1.664063-7.847656 5-10.203125 3.34375-2.363281 8.195313-3.546875 14.5625-3.546875 6.09375 0 10.664063.953125 13.71875 2.859375 3.0625 1.90625 5.035156 5.058594 5.921875 9.453125l-9.984375 1.359375c-.511719-2.113281-1.554687-3.703125-3.125-4.765625-1.5625-1.070312-3.808594-1.609375-6.734375-1.609375-6.230469 0-9.34375 1.953125-9.34375 5.859375 0 1.28125.328125 2.328125.984375 3.140625.664063.8125 1.648437 1.507813 2.953125 2.078125 1.300781.5625 3.9375 1.277344 7.90625 2.140625 4.71875 1 8.09375 1.929687 10.125 2.78125 2.039062.84375 3.65625 1.828125 4.84375 2.953125s2.09375 2.476562 2.71875 4.046875c.625 1.5625.9375 3.371094.9375 5.421875zm0 0"/></symbol><symbol id="b" overflow="visible"><path d="m4.78125 0v-49.140625h10.28125v41.1875h26.375v7.953125zm0 0"/></symbol><symbol id="c" overflow="visible"><path d="m29.078125 0h-10.421875l-18.171875-49.140625h10.75l10.109375 31.5625c.625 2.054687 1.484375 5.148437 2.578125 9.28125l.734375-3 1.78125-6.28125 10.078125-31.5625h10.640625zm0 0"/></symbol><path d="m250 125c0 69.035156-55.964844 125-125 125s-125-55.964844-125-125 55.964844-125 125-125 125 55.964844 125 125zm0 0" fill="#fff" fill-rule="evenodd"/><g fill="#121a2f"><use x="67.070312" xlink:href="#a" y="151.787388"/><use x="109.934431" xlink:href="#b" y="151.787388"/><use x="143.869978" xlink:href="#c" y="151.787388"/></g></svg>

<svg xmlns="http://www.w3.org/2000/svg" xmlns:xlink="http://www.w3.org/1999/xlink" width="250px" height="250px" viewBox="0 0 250 250" version="1.1">
<defs>
<g>
<symbol overflow="visible" id="glyph0-0">
<path style="stroke:none;" d="M 7.15625 -49.140625 L 46.375 -49.140625 L 46.375 0 L 7.15625 0 Z M 9.796875 -46.484375 L 9.796875 -2.65625 L 43.734375 -2.65625 L 43.734375 -46.484375 Z M 9.796875 -46.484375 "/>
</symbol>
<symbol overflow="visible" id="glyph0-1">
<path style="stroke:none;" d="M 44.84375 -14.15625 C 44.84375 -9.34375 43.054688 -5.660156 39.484375 -3.109375 C 35.921875 -0.566406 30.6875 0.703125 23.78125 0.703125 C 17.476562 0.703125 12.535156 -0.410156 8.953125 -2.640625 C 5.378906 -4.878906 3.082031 -8.265625 2.0625 -12.796875 L 12 -14.4375 C 12.675781 -11.832031 13.988281 -9.941406 15.9375 -8.765625 C 17.882812 -7.597656 20.59375 -7.015625 24.0625 -7.015625 C 31.25 -7.015625 34.84375 -9.195312 34.84375 -13.5625 C 34.84375 -14.957031 34.425781 -16.109375 33.59375 -17.015625 C 32.769531 -17.921875 31.609375 -18.675781 30.109375 -19.28125 C 28.609375 -19.882812 25.734375 -20.617188 21.484375 -21.484375 C 17.804688 -22.335938 15.242188 -23.023438 13.796875 -23.546875 C 12.359375 -24.078125 11.054688 -24.695312 9.890625 -25.40625 C 8.734375 -26.113281 7.75 -26.96875 6.9375 -27.96875 C 6.125 -28.96875 5.488281 -30.140625 5.03125 -31.484375 C 4.582031 -32.835938 4.359375 -34.382812 4.359375 -36.125 C 4.359375 -40.570312 6.023438 -43.972656 9.359375 -46.328125 C 12.703125 -48.691406 17.554688 -49.875 23.921875 -49.875 C 30.015625 -49.875 34.585938 -48.921875 37.640625 -47.015625 C 40.703125 -45.109375 42.675781 -41.957031 43.5625 -37.5625 L 33.578125 -36.203125 C 33.066406 -38.316406 32.023438 -39.90625 30.453125 -40.96875 C 28.890625 -42.039062 26.644531 -42.578125 23.71875 -42.578125 C 17.488281 -42.578125 14.375 -40.625 14.375 -36.71875 C 14.375 -35.4375 14.703125 -34.390625 15.359375 -33.578125 C 16.023438 -32.765625 17.007812 -32.070312 18.3125 -31.5 C 19.613281 -30.9375 22.25 -30.222656 26.21875 -29.359375 C 30.9375 -28.359375 34.3125 -27.429688 36.34375 -26.578125 C 38.382812 -25.734375 40 -24.75 41.1875 -23.625 C 42.375 -22.5 43.28125 -21.148438 43.90625 -19.578125 C 44.53125 -18.015625 44.84375 -16.207031 44.84375 -14.15625 Z M 44.84375 -14.15625 "/>
</symbol>
<symbol overflow="visible" id="glyph0-2">
<path style="stroke:none;" d="M 4.78125 0 L 4.78125 -49.140625 L 15.0625 -49.140625 L 15.0625 -7.953125 L 41.4375 -7.953125 L 41.4375 0 Z M 4.78125 0 "/>
</symbol>
<symbol overflow="visible" id="glyph0-3">
<path style="stroke:none;" d="M 29.078125 0 L 18.65625 0 L 0.484375 -49.140625 L 11.234375 -49.140625 L 21.34375 -17.578125 C 21.96875 -15.523438 22.828125 -12.429688 23.921875 -8.296875 L 24.65625 -11.296875 L 26.4375 -17.578125 L 36.515625 -49.140625 L 47.15625 -49.140625 Z M 29.078125 0 "/>
</symbol>
</g>
</defs>
<g id="surface1">
<path style=" stroke:none;fill-rule:evenodd;fill:rgb(100%,100%,100%);fill-opacity:1;" d="M 250 125 C 250 194.035156 194.035156 250 125 250 C 55.964844 250 0 194.035156 0 125 C 0 55.964844 55.964844 0 125 0 C 194.035156 0 250 55.964844 250 125 Z M 250 125 "/>
<g style="fill:rgb(7.058824%,10.196079%,18.431373%);fill-opacity:1;">
  <use xlink:href="#glyph0-1" x="67.070312" y="151.787388"/>
  <use xlink:href="#glyph0-2" x="109.934431" y="151.787388"/>
  <use xlink:href="#glyph0-3" x="143.869978" y="151.787388"/>
</g>
</g>
</svg>
